svg/u26fa.svg

<svg viewBox="0 0 128 128" xmlns="http://www.w3.org/2000/svg">
  <polygon points="85.97,62.07 68.2,117.71 78.11,120.16 99.37,118.87 98.34,82.94 " fill="#2F2F2F"/>
  <path d="M35.74,44.29c-1.32,0.99-4.51,12.37-12.24,27.95s-17.65,36.2-17.65,36.2s1.16,1.67,15.84,6.96 s26.81,7.61,26.81,7.61s32.7-50.9,32.96-52.05c0.26-1.16,5.48-22.38,5.48-22.38s-20.81-1.45-29.83-2.22S37.28,43.13,35.74,44.29z" fill="#F19F40"/>
  <path d="M110.4,118.76l10.98-1.87c0,0-10.13-21.19-15.67-31.88s-15.1-33.38-16-35.05s-4.64-2.45-6.31,0.52 S67.79,84.04,65.17,88.93c-2.95,5.5-17.61,32.59-17.74,34.01c-0.13,1.42,24.68-0.93,24.68-0.93l6.4-18.85l7.73-33.49l1.29,0.26 l6.18,27.31L110.4,118.76z" fill="#EC5F32"/>
  <path d="M79.33,121.12c-0.22,1.3-6.76,2.43-10.48,2.51c-3.73,0.09-10.4,0.35-11.18-0.52 c-0.78-0.87,8.4-9.01,14.3-19.67c5.89-10.66,9.36-18.02,10.22-20.97c0.87-2.95,2.6-11.78,3.29-13.26s2.08-1.21,2.51,0.17 c0.43,1.39,4.94,18.46,6.5,22.53c1.56,4.07,7.97,12.56,9.88,15.25c1.91,2.69,11.35,9.85,11.52,10.54c0.17,0.69-5.84,2.8-9.93,3.27 c-2.93,0.33-9.76-0.18-10.28-1.05c-0.52-0.87-4.05-23.94-5.35-31.65c-1.3-7.71-3.55-18.02-3.55-18.02s-5.11,24.78-5.81,31.37 C80.28,108.21,79.67,119.04,79.33,121.12z" fill="#9C2D1B"/>
  <path d="M4.2,98.52c0,0,0.73-0.76,2.11-0.85c1.38-0.08,2.6,0.76,2.6,0.76l0.89,12.82c0,0-1.06,0.93-2.36,0.93 s-2.52-0.68-2.52-0.68L4.2,98.52z" fill="#9C2D1B"/>
  <path d="M41.46,111.41c0,0,1.13-0.95,2.86-0.95c1.73,0,3.03,0.87,3.03,0.87l0.09,13c0,0-1.39,0.78-2.43,0.78 c-1.04,0-2.69-0.52-2.69-0.52L41.46,111.41z" fill="#9C2D1B"/>
  <path d="M119,105.7c0,0,0.93-1.08,2.58-1s2.55,0.65,2.55,0.65l-0.78,13.34c0,0-0.61,0.87-2.08,0.87 s-2.77-0.69-2.77-0.69L119,105.7z" fill="#9C2D1B"/>
</svg>

<svg viewBox="0 0 128 128" xmlns="http://www.w3.org/2000/svg">
  <defs/>
  <path d="M85.97,62.07 L68.2,117.71 L78.11,120.16 L99.37,118.87 L98.34,82.94 Z" fill="#2F2F2F"/>
  <path d="M35.74,44.29 C34.42,45.28 31.23,56.66 23.5,72.24 C15.77,87.82 5.85,108.44 5.85,108.44 C5.85,108.44 7.01,110.11 21.69,115.4 C36.37,120.69 48.5,123.01 48.5,123.01 C48.5,123.01 81.2,72.11 81.46,70.96 C81.72,69.8 86.94,48.58 86.94,48.58 C86.94,48.58 66.13,47.13 57.11,46.36 C48.09,45.59 37.28,43.13 35.74,44.29 Z" fill="#F19F40"/>
  <path d="M110.4,118.76 L121.38,116.89 C121.38,116.89 111.25,95.7 105.71,85.01 C100.17,74.32 90.61,51.63 89.71,49.96 C88.81,48.29 85.07,47.51 83.4,50.48 C81.73,53.45 67.79,84.04 65.17,88.93 C62.22,94.43 47.56,121.52 47.43,122.94 C47.3,124.36 72.11,122.01 72.11,122.01 L78.51,103.16 L86.24,69.67 L87.53,69.93 L93.71,97.24 L110.4,118.76 Z" fill="#EC5F32"/>
  <path d="M79.33,121.12 C79.11,122.42 72.57,123.55 68.85,123.63 C65.12,123.72 58.45,123.98 57.67,123.11 C56.89,122.24 66.07,114.1 71.97,103.44 C77.86,92.78 81.33,85.42 82.19,82.47 C83.06,79.52 84.79,70.69 85.48,69.21 C86.17,67.73 87.56,68 87.99,69.38 C88.42,70.77 92.93,87.84 94.49,91.91 C96.05,95.98 102.46,104.47 104.37,107.16 C106.28,109.85 115.72,117.01 115.89,117.7 C116.06,118.39 110.05,120.5 105.96,120.97 C103.03,121.3 96.2,120.79 95.68,119.92 C95.16,119.05 91.63,95.98 90.33,88.27 C89.03,80.56 86.78,70.25 86.78,70.25 C86.78,70.25 81.67,95.03 80.97,101.62 C80.28,108.21 79.67,119.04 79.33,121.12 Z" fill="#9C2D1B"/>
  <path d="M4.2,98.52 C4.2,98.52 4.93,97.76 6.31,97.67 C7.69,97.59 8.91,98.43 8.91,98.43 L9.8,111.25 C9.8,111.25 8.74,112.18 7.44,112.18 C6.14,112.18 4.92,111.5 4.92,111.5 L4.2,98.52 Z" fill="#9C2D1B"/>
  <path d="M41.46,111.41 C41.46,111.41 42.59,110.46 44.32,110.46 C46.05,110.46 47.35,111.33 47.35,111.33 L47.44,124.33 C47.44,124.33 46.05,125.11 45.01,125.11 C43.97,125.11 42.32,124.59 42.32,124.59 L41.46,111.41 Z" fill="#9C2D1B"/>
  <path d="M119,105.7 C119,105.7 119.93,104.62 121.58,104.7 C123.23,104.78 124.13,105.35 124.13,105.35 L123.35,118.69 C123.35,118.69 122.74,119.56 121.27,119.56 C119.8,119.56 118.5,118.87 118.5,118.87 L119,105.7 Z" fill="#9C2D1B"/>
</svg>
